modules/hawcons-stroke/icons/two-fingers-rotate.svg

<?xml version="1.0" encoding="UTF-8" standalone="no"?>
<svg width="32px" height="32px" viewBox="0 0 32 32" version="1.1" xmlns="http://www.w3.org/2000/svg" xmlns:xlink="http://www.w3.org/1999/xlink" xmlns:sketch="http://www.bohemiancoding.com/sketch/ns">
    <!-- Generator: Sketch 3.0.3 (7891) - http://www.bohemiancoding.com/sketch -->
    <title>icon 17 two fingers rotate</title>
    <desc>Created with Sketch.</desc>
    <defs></defs>
    <g id="Page-1" stroke="none" stroke-width="1" fill="none" fill-rule="evenodd" sketch:type="MSPage">
        <g id="icon-17-two-fingers-rotate" sketch:type="MSArtboardGroup" fill="#929292">
            <path d="M4.31912495,12.4404453 C4.13474411,11.8380063 4.03553391,11.198356 4.03553391,10.5355339 C4.03553391,6.94568285 6.94568285,4.03553391 10.5355339,4.03553391 C11.198356,4.03553391 11.8380063,4.13474411 12.4404453,4.31912495 L12.4404453,4.31912495 L9.82842712,1.70710678 L10.5355339,1 L14.0710678,4.53553391 L13.363961,5.24264069 L13.0355339,5.57106781 L13.0355339,5.63524344 C13.0213622,5.62799894 13.0071549,5.62081411 12.9929127,5.61368905 L10.5355339,8.07106781 L9.82842712,7.36396103 L11.9683589,5.22402921 C11.5115307,5.10109894 11.0311891,5.03553391 10.5355339,5.03553391 C7.49796763,5.03553391 5.03553391,7.49796763 5.03553391,10.5355339 C5.03553391,11.0311891 5.10109894,11.5115307 5.22402921,11.9683589 L7.36396103,9.82842712 L8.07106781,10.5355339 L5.61368905,12.9929127 C5.62081411,13.0071549 5.62799894,13.0213622 5.63524344,13.0355339 L5.57106781,13.0355339 L4.53553391,14.0710678 L3.82842712,13.363961 L1,10.5355339 L1.70710678,9.82842712 L4.31912495,12.4404453 L4.31912495,12.4404453 L4.31912495,12.4404453 Z M31.0355339,23.5355339 C31.0355339,28.2299545 27.2299545,32.0355339 22.5355339,32.0355342 C19.4226187,32.0355342 16.1373409,30.5830195 13.8763543,26.4637568 C10.6128657,20.5180498 6.43938676,16.6187416 8.42664718,14.6314812 C9.84829627,13.2098321 12.0803755,14.5737007 14.0355339,16.4023207 L14.0355339,16.4023207 L14.0355339,7.54394245 C14.0355339,6.15095139 15.154822,5.03553391 16.5355339,5.03553391 C17.1737835,5.03553391 17.7528844,5.27220243 18.1926395,5.6622697 C18.5471101,4.71072522 19.4623534,4.03553391 20.5355339,4.03553391 C21.9258718,4.03553391 23.0355339,5.15636939 23.0355339,6.53899003 L23.0355339,13.5376705 C23.4533642,13.222902 23.9727309,13.0355339 24.5355339,13.0355339 C25.9258718,13.0355339 27.0355339,14.1537595 27.0355339,15.5331606 L27.0355339,15.5466222 C27.4533642,15.2340497 27.9727309,15.049725 28.5355339,15.049725 C29.9258718,15.049725 31.0355339,16.1690694 31.0355339,17.5498507 L31.0355339,23.5355339 L31.0355339,23.5355339 Z M22.5355339,31.0355339 C18.7758188,31.0350757 16.5455297,28.9844214 14.7829094,26.0186275 C10.8708959,19.4362555 8.06939683,16.4242901 9.15656661,15.3312492 C10.2671637,14.2146545 12.9771343,16.6334582 15.0355339,18.833879 L15.0355339,7.54077506 C15.0355339,6.70266366 15.7071068,6.03553391 16.5355339,6.03553391 C17.3697367,6.03553391 18.0355339,6.70945333 18.0355339,7.54077506 L18.0355339,18.0355339 L19.0355339,18.0355339 L19.0355339,6.52643204 C19.0355339,5.71175397 19.7071068,5.03553391 20.5355339,5.03553391 C21.3697367,5.03553391 22.0355339,5.70303174 22.0355339,6.52643204 L22.0355339,17.0355339 L23.0355339,17.0355339 L23.0355339,15.5419724 C23.0355339,14.7070745 23.7071068,14.0355339 24.5355339,14.0355339 C25.3697367,14.0355339 26.0355339,14.7099894 26.0355339,15.5419724 L26.0355339,18.0355339 L27.0355339,18.0355339 L27.0355339,17.5372095 C27.0355339,16.7067233 27.7071068,16.0355339 28.5355339,16.0355339 C29.3697367,16.0355339 30.0355339,16.707857 30.0355339,17.5372095 L30.0355339,19.7846961 L30.0355339,23.5355339 C30.0355339,27.6776697 26.6776697,31.0355339 22.5355339,31.0355339 L22.5355339,31.0355339 Z" id="two-fingers-rotate" sketch:type="MSShapeGroup"></path>
        </g>
    </g>
</svg>

<svg width="32" height="32" viewBox="0 0 32 32" xmlns="http://www.w3.org/2000/svg"><path d="M4.32 12.44A6.5 6.5 0 0 1 12.44 4.32L9.827 1.707 10.536 1l3.535 3.536-.707.707-.328.328v.064a5.494 5.494 0 0 0-.043-.021L10.536 8.07l-.708-.707 2.14-2.14a5.5 5.5 0 0 0-6.744 6.744l2.14-2.14.707.708-2.457 2.457.021.043h-.064L4.536 14.07l-.708-.707L1 10.536l.707-.708L4.32 12.44zm26.716 11.096a8.5 8.5 0 0 1-8.5 8.5c-3.113 0-6.399-1.453-8.66-5.572-3.263-5.946-7.437-9.845-5.45-11.833 1.422-1.421 3.654-.057 5.61 1.771V7.544a2.5 2.5 0 0 1 4.157-1.882 2.499 2.499 0 0 1 2.343-1.626c1.39 0 2.5 1.12 2.5 2.503v6.999a2.485 2.485 0 0 1 1.5-.502c1.39 0 2.5 1.118 2.5 2.497v.014a2.495 2.495 0 0 1 1.5-.497c1.39 0 2.5 1.12 2.5 2.5v5.986zm-8.5 7.5c-3.76 0-5.99-2.052-7.753-5.017-3.912-6.583-6.714-9.595-5.626-10.688 1.11-1.116 3.82 1.302 5.879 3.503V7.54a1.499 1.499 0 1 1 3 0v10.495h1V6.526a1.501 1.501 0 0 1 3 0v10.51h1v-1.494a1.5 1.5 0 1 1 3 0v2.494h1v-.499a1.5 1.5 0 1 1 3 0v5.998a7.5 7.5 0 0 1-7.5 7.5z" fill="#929292" fill-rule="evenodd"/></svg>
